X: 22
T: Cliffs Of Moher, The
Z: UPipes & harp
S: https://thesession.org/tunes/12#setting49691
R: jig
M: 6/8
L: 1/8
K: Ador
e |:aga bag|eaf ged|c2 A BAG|EAF GED|
aga bag|eaf ged|c2 A BAG|EFG A3:|
e2 e dBA|e2 e dBA|GAB dBA|GAB dBd|
e2 e dBA|e2 e dBA|GAB dBA|EFG A3|
e2 e dBA|e2 e dBA|GAB dBA|GAB dBd|
efe dee|cee Bee|EFG BAG|E[FD][GB,] [AA,]3||

